X: 1
T: New Concertina, The
M: 4/4
L: 1/8
R: reel
K: Gmaj
g2fg g2fg | g2fg ed^cd| edfd edfd | edfd ed^cd|
g2fg g2fg| g2fg edBA|Bdef g2ge|dBAB G4:|
|:Bdd2 edd2|Bdd2 edd2| edfd edfd|edfd ed^cd
|Bdd2 Bdd2|Bdd2 edBA|Bdef g2ge|dBAB G4:|
